svg/emoji/omg_fill.svg

<?xml version="1.0" encoding="UTF-8"?>
<svg width="24px" height="24px" viewBox="0 0 24 24" version="1.1" xmlns="http://www.w3.org/2000/svg" xmlns:xlink="http://www.w3.org/1999/xlink">
    <title>omg_fill</title>
    <g id="Icon" stroke="none" stroke-width="1" fill="none" fill-rule="evenodd">
        <g id="Emoji" transform="translate(-480.000000, -48.000000)" fill-rule="nonzero">
            <g id="omg_fill" transform="translate(480.000000, 48.000000)">
                <path d="M24,0 L24,24 L0,24 L0,0 L24,0 Z M12.5935,23.2578 L12.5819,23.2595 L12.5109,23.295 L12.4919,23.2987 L12.4767,23.295 L12.4057,23.2595 C12.3958,23.2564 12.387,23.259 12.3821,23.2649 L12.378,23.2758 L12.3609,23.7031 L12.3659,23.7235 L12.3769,23.7357 L12.4805,23.8097 L12.4953,23.8136 L12.5071,23.8097 L12.6107,23.7357 L12.6233,23.7197 L12.6267,23.7031 L12.6096,23.2758 C12.6076,23.2657 12.601,23.2593 12.5935,23.2578 Z M12.8584,23.1453 L12.8445,23.1473 L12.6598,23.2397 L12.6499,23.2499 L12.6472,23.2611 L12.6651,23.6906 L12.6699,23.7034 L12.6784,23.7105 L12.8793,23.8032 C12.8914,23.8069 12.9022,23.803 12.9078,23.7952 L12.9118,23.7812 L12.8777,23.1665 C12.8753,23.1546 12.8674,23.147 12.8584,23.1453 Z M12.143,23.1473 C12.1332,23.1424 12.1222,23.1453 12.1156,23.1526 L12.1099,23.1665 L12.0758,23.7812 C12.0751,23.7927 12.0828,23.8019 12.0926,23.8046 L12.1083,23.8032 L12.3092,23.7105 L12.3186,23.7024 L12.3225,23.6906 L12.3404,23.2611 L12.3372,23.2485 L12.3278,23.2397 L12.143,23.1473 Z" id="MingCute"></path>
                <path d="M12,2 C17.5228,2 22,6.47715 22,12 C22,17.5228 17.5228,22 12,22 C6.47715,22 2,17.5228 2,12 C2,6.47715 6.47715,2 12,2 Z M13,12 C12.141,12 11.6326,12.6703 11.3985,13.1386 C11.1344,13.6666 11,14.3261 11,15 C11,15.6739 11.1344,16.3334 11.3985,16.8614 C11.6326,17.3297 12.141,18 13,18 C13.859,18 14.3674,17.3297 14.6015,16.8614 C14.8656,16.3334 15,15.6739 15,15 C15,14.3261 14.8656,13.6666 14.6015,13.1386 C14.3674,12.6703 13.859,12 13,12 Z M8.5,8 C7.11929,8 6,9.11929 6,10.5 C6,11.8807 7.11929,13 8.5,13 C9.88071,13 11,11.8807 11,10.5 C11,9.11929 9.88071,8 8.5,8 Z M15.5,7 C14.1193,7 13,8.11929 13,9.5 C13,10.8807 14.1193,12 15.5,12 C16.8807,12 18,10.8807 18,9.5 C18,8.11929 16.8807,7 15.5,7 Z M8.5,10 C8.77614,10 9,10.2239 9,10.5 C9,10.7761 8.77614,11 8.5,11 C8.22386,11 8,10.7761 8,10.5 C8,10.2239 8.22386,10 8.5,10 Z M15.5,9 C15.7761,9 16,9.22386 16,9.5 C16,9.77614 15.7761,10 15.5,10 C15.2239,10 15,9.77614 15,9.5 C15,9.22386 15.2239,9 15.5,9 Z" id="形状" fill="#09244B"></path>
            </g>
        </g>
    </g>
</svg>

<svg xmlns="http://www.w3.org/2000/svg" width="24" height="24"><g fill="none" fill-rule="nonzero"><path d="M24 0v24H0V0h24ZM12.594 23.258l-.012.002-.071.035-.02.004-.014-.004-.071-.036c-.01-.003-.019 0-.024.006l-.004.01-.017.428.005.02.01.013.104.074.015.004.012-.004.104-.074.012-.016.004-.017-.017-.427c-.002-.01-.009-.017-.016-.018Zm.264-.113-.014.002-.184.093-.01.01-.003.011.018.43.005.012.008.008.201.092c.012.004.023 0 .029-.008l.004-.014-.034-.614c-.003-.012-.01-.02-.02-.022Zm-.715.002a.023.023 0 0 0-.027.006l-.006.014-.034.614c0 .012.007.02.017.024l.015-.002.201-.093.01-.008.003-.011.018-.43-.003-.012-.01-.01-.184-.092Z"/><path fill="#09244B" d="M12 2c5.523 0 10 4.477 10 10s-4.477 10-10 10S2 17.523 2 12 6.477 2 12 2Zm1 10c-.859 0-1.367.67-1.601 1.139C11.134 13.667 11 14.326 11 15c0 .674.134 1.333.399 1.861C11.633 17.33 12.14 18 13 18s1.367-.67 1.601-1.139c.265-.528.399-1.187.399-1.861 0-.674-.134-1.333-.399-1.861C14.368 12.67 13.86 12 13 12ZM8.5 8a2.5 2.5 0 1 0 0 5 2.5 2.5 0 0 0 0-5Zm7-1a2.5 2.5 0 1 0 0 5 2.5 2.5 0 0 0 0-5Zm-7 3a.5.5 0 1 1 0 1 .5.5 0 0 1 0-1Zm7-1a.5.5 0 1 1 0 1 .5.5 0 0 1 0-1Z"/></g></svg>
